configs/lut/rec709_neutral_monitor.cube
TITLE "Rec709 Neutral Monitor"
LUT_3D_SIZE 9
DOMAIN_MIN 0.0 0.0 0.0
DOMAIN_MAX 1.0 1.0 1.0
0.000000 0.000000 0.000000
0.129334 0.000000 0.000000
0.255576 0.000000 0.000000
0.380797 0.000000 0.000000
0.505383 0.000000 0.000000
0.629511 0.000000 0.000000
0.753283 0.000000 0.000000
0.876764 0.000000 0.000000
1.000000 0.000000 0.000000
0.000000 0.129334 0.000000
0.129334 0.129334 0.000000
0.255576 0.129334 0.000000
0.380797 0.129334 0.000000
0.505383 0.129334 0.000000
0.629511 0.129334 0.000000
0.753283 0.129334 0.000000
0.876764 0.129334 0.000000
1.000000 0.129334 0.000000
0.000000 0.255576 0.000000
0.129334 0.255576 0.000000
0.255576 0.255576 0.000000
0.380797 0.255576 0.000000
0.505383 0.255576 0.000000
0.629511 0.255576 0.000000
0.753283 0.255576 0.000000
0.876764 0.255576 0.000000
1.000000 0.255576 0.000000
0.000000 0.380797 0.000000
0.129334 0.380797 0.000000
0.255576 0.380797 0.000000
0.380797 0.380797 0.000000
0.505383 0.380797 0.000000
0.629511 0.380797 0.000000
0.753283 0.380797 0.000000
0.876764 0.380797 0.000000
1.000000 0.380797 0.000000
0.000000 0.505383 0.000000
0.129334 0.505383 0.000000
0.255576 0.505383 0.000000
0.380797 0.505383 0.000000
0.505383 0.505383 0.000000
0.629511 0.505383 0.000000
0.753283 0.505383 0.000000
0.876764 0.505383 0.000000
1.000000 0.505383 0.000000
0.000000 0.629511 0.000000
0.129334 0.629511 0.000000
0.255576 0.629511 0.000000
0.380797 0.629511 0.000000
0.505383 0.629511 0.000000
0.629511 0.629511 0.000000
0.753283 0.629511 0.000000
0.876764 0.629511 0.000000
1.000000 0.629511 0.000000
0.000000 0.753283 0.000000
0.129334 0.753283 0.000000
0.255576 0.753283 0.000000
0.380797 0.753283 0.000000
0.505383 0.753283 0.000000
0.629511 0.753283 0.000000
0.753283 0.753283 0.000000
0.876764 0.753283 0.000000
1.000000 0.753283 0.000000
0.000000 0.876764 0.000000
0.129334 0.876764 0.000000
0.255576 0.876764 0.000000
0.380797 0.876764 0.000000
0.505383 0.876764 0.000000
0.629511 0.876764 0.000000
0.753283 0.876764 0.000000
0.876764 0.876764 0.000000
1.000000 0.876764 0.000000
0.000000 1.000000 0.000000
0.129334 1.000000 0.000000
0.255576 1.000000 0.000000
0.380797 1.000000 0.000000
0.505383 1.000000 0.000000
0.629511 1.000000 0.000000
0.753283 1.000000 0.000000
0.876764 1.000000 0.000000
1.000000 1.000000 0.000000
0.000000 0.000000 0.129334
0.129334 0.000000 0.129334
0.255576 0.000000 0.129334
0.380797 0.000000 0.129334
0.505383 0.000000 0.129334
0.629511 0.000000 0.129334
0.753283 0.000000 0.129334
0.876764 0.000000 0.129334
1.000000 0.000000 0.129334
0.000000 0.129334 0.129334
0.129334 0.129334 0.129334
0.255576 0.129334 0.129334
0.380797 0.129334 0.129334
0.505383 0.129334 0.129334
0.629511 0.129334 0.129334
0.753283 0.129334 0.129334
0.876764 0.129334 0.129334
1.000000 0.129334 0.129334
0.000000 0.255576 0.129334
0.129334 0.255576 0.129334
0.255576 0.255576 0.129334
0.380797 0.255576 0.129334
0.505383 0.255576 0.129334
0.629511 0.255576 0.129334
0.753283 0.255576 0.129334
0.876764 0.255576 0.129334
1.000000 0.255576 0.129334
0.000000 0.380797 0.129334
0.129334 0.380797 0.129334
0.255576 0.380797 0.129334
0.380797 0.380797 0.129334
0.505383 0.380797 0.129334
0.629511 0.380797 0.129334
0.753283 0.380797 0.129334
0.876764 0.380797 0.129334
1.000000 0.380797 0.129334
0.000000 0.505383 0.129334
0.129334 0.505383 0.129334
0.255576 0.505383 0.129334
0.380797 0.505383 0.129334
0.505383 0.505383 0.129334
0.629511 0.505383 0.129334
0.753283 0.505383 0.129334
0.876764 0.505383 0.129334
1.000000 0.505383 0.129334
0.000000 0.629511 0.129334
0.129334 0.629511 0.129334
0.255576 0.629511 0.129334
0.380797 0.629511 0.129334
0.505383 0.629511 0.129334
0.629511 0.629511 0.129334
0.753283 0.629511 0.129334
0.876764 0.629511 0.129334
1.000000 0.629511 0.129334
0.000000 0.753283 0.129334
0.129334 0.753283 0.129334
0.255576 0.753283 0.129334
0.380797 0.753283 0.129334
0.505383 0.753283 0.129334
0.629511 0.753283 0.129334
0.753283 0.753283 0.129334
0.876764 0.753283 0.129334
1.000000 0.753283 0.129334
0.000000 0.876764 0.129334
0.129334 0.876764 0.129334
0.255576 0.876764 0.129334
0.380797 0.876764 0.129334
0.505383 0.876764 0.129334
0.629511 0.876764 0.129334
0.753283 0.876764 0.129334
0.876764 0.876764 0.129334
1.000000 0.876764 0.129334
0.000000 1.000000 0.129334
0.129334 1.000000 0.129334
0.255576 1.000000 0.129334
0.380797 1.000000 0.129334
0.505383 1.000000 0.129334
0.629511 1.000000 0.129334
0.753283 1.000000 0.129334
0.876764 1.000000 0.129334
1.000000 1.000000 0.129334
0.000000 0.000000 0.255576
0.129334 0.000000 0.255576
0.255576 0.000000 0.255576
0.380797 0.000000 0.255576
0.505383 0.000000 0.255576
0.629511 0.000000 0.255576
0.753283 0.000000 0.255576
0.876764 0.000000 0.255576
1.000000 0.000000 0.255576
0.000000 0.129334 0.255576
0.129334 0.129334 0.255576
0.255576 0.129334 0.255576
0.380797 0.129334 0.255576
0.505383 0.129334 0.255576
0.629511 0.129334 0.255576
0.753283 0.129334 0.255576
0.876764 0.129334 0.255576
1.000000 0.129334 0.255576
0.000000 0.255576 0.255576
0.129334 0.255576 0.255576
0.255576 0.255576 0.255576
0.380797 0.255576 0.255576
0.505383 0.255576 0.255576
0.629511 0.255576 0.255576
0.753283 0.255576 0.255576
0.876764 0.255576 0.255576
1.000000 0.255576 0.255576
0.000000 0.380797 0.255576
0.129334 0.380797 0.255576
0.255576 0.380797 0.255576
0.380797 0.380797 0.255576
0.505383 0.380797 0.255576
0.629511 0.380797 0.255576
0.753283 0.380797 0.255576
0.876764 0.380797 0.255576
1.000000 0.380797 0.255576
0.000000 0.505383 0.255576
0.129334 0.505383 0.255576
0.255576 0.505383 0.255576
0.380797 0.505383 0.255576
0.505383 0.505383 0.255576
0.629511 0.505383 0.255576
0.753283 0.505383 0.255576
0.876764 0.505383 0.255576
1.000000 0.505383 0.255576
0.000000 0.629511 0.255576
0.129334 0.629511 0.255576
0.255576 0.629511 0.255576
0.380797 0.629511 0.255576
0.505383 0.629511 0.255576
0.629511 0.629511 0.255576
0.753283 0.629511 0.255576
0.876764 0.629511 0.255576
1.000000 0.629511 0.255576
0.000000 0.753283 0.255576
0.129334 0.753283 0.255576
0.255576 0.753283 0.255576
0.380797 0.753283 0.255576
0.505383 0.753283 0.255576
0.629511 0.753283 0.255576
0.753283 0.753283 0.255576
0.876764 0.753283 0.255576
1.000000 0.753283 0.255576
0.000000 0.876764 0.255576
0.129334 0.876764 0.255576
0.255576 0.876764 0.255576
0.380797 0.876764 0.255576
0.505383 0.876764 0.255576
0.629511 0.876764 0.255576
0.753283 0.876764 0.255576
0.876764 0.876764 0.255576
1.000000 0.876764 0.255576
0.000000 1.000000 0.255576
0.129334 1.000000 0.255576
0.255576 1.000000 0.255576
0.380797 1.000000 0.255576
0.505383 1.000000 0.255576
0.629511 1.000000 0.255576
0.753283 1.000000 0.255576
0.876764 1.000000 0.255576
1.000000 1.000000 0.255576
0.000000 0.000000 0.380797
0.129334 0.000000 0.380797
0.255576 0.000000 0.380797
0.380797 0.000000 0.380797
0.505383 0.000000 0.380797
0.629511 0.000000 0.380797
0.753283 0.000000 0.380797
0.876764 0.000000 0.380797
1.000000 0.000000 0.380797
0.000000 0.129334 0.380797
0.129334 0.129334 0.380797
0.255576 0.129334 0.380797
0.380797 0.129334 0.380797
0.505383 0.129334 0.380797
0.629511 0.129334 0.380797
0.753283 0.129334 0.380797
0.876764 0.129334 0.380797
1.000000 0.129334 0.380797
0.000000 0.255576 0.380797
0.129334 0.255576 0.380797
0.255576 0.255576 0.380797
0.380797 0.255576 0.380797
0.505383 0.255576 0.380797
0.629511 0.255576 0.380797
0.753283 0.255576 0.380797
0.876764 0.255576 0.380797
1.000000 0.255576 0.380797
0.000000 0.380797 0.380797
0.129334 0.380797 0.380797
0.255576 0.380797 0.380797
0.380797 0.380797 0.380797
0.505383 0.380797 0.380797
0.629511 0.380797 0.380797
0.753283 0.380797 0.380797
0.876764 0.380797 0.380797
1.000000 0.380797 0.380797
0.000000 0.505383 0.380797
0.129334 0.505383 0.380797
0.255576 0.505383 0.380797
0.380797 0.505383 0.380797
0.505383 0.505383 0.380797
0.629511 0.505383 0.380797
0.753283 0.505383 0.380797
0.876764 0.505383 0.380797
1.000000 0.505383 0.380797
0.000000 0.629511 0.380797
0.129334 0.629511 0.380797
0.255576 0.629511 0.380797
0.380797 0.629511 0.380797
0.505383 0.629511 0.380797
0.629511 0.629511 0.380797
0.753283 0.629511 0.380797
0.876764 0.629511 0.380797
1.000000 0.629511 0.380797
0.000000 0.753283 0.380797
0.129334 0.753283 0.380797
0.255576 0.753283 0.380797
0.380797 0.753283 0.380797
0.505383 0.753283 0.380797
0.629511 0.753283 0.380797
0.753283 0.753283 0.380797
0.876764 0.753283 0.380797
1.000000 0.753283 0.380797
0.000000 0.876764 0.380797
0.129334 0.876764 0.380797
0.255576 0.876764 0.380797
0.380797 0.876764 0.380797
0.505383 0.876764 0.380797
0.629511 0.876764 0.380797
0.753283 0.876764 0.380797
0.876764 0.876764 0.380797
1.000000 0.876764 0.380797
0.000000 1.000000 0.380797
0.129334 1.000000 0.380797
0.255576 1.000000 0.380797
0.380797 1.000000 0.380797
0.505383 1.000000 0.380797
0.629511 1.000000 0.380797
0.753283 1.000000 0.380797
0.876764 1.000000 0.380797
1.000000 1.000000 0.380797
0.000000 0.000000 0.505383
0.129334 0.000000 0.505383
0.255576 0.000000 0.505383
0.380797 0.000000 0.505383
0.505383 0.000000 0.505383
0.629511 0.000000 0.505383
0.753283 0.000000 0.505383
0.876764 0.000000 0.505383
1.000000 0.000000 0.505383
0.000000 0.129334 0.505383
0.129334 0.129334 0.505383
0.255576 0.129334 0.505383
0.380797 0.129334 0.505383
0.505383 0.129334 0.505383
0.629511 0.129334 0.505383
0.753283 0.129334 0.505383
0.876764 0.129334 0.505383
1.000000 0.129334 0.505383
0.000000 0.255576 0.505383
0.129334 0.255576 0.505383
0.255576 0.255576 0.505383
0.380797 0.255576 0.505383
0.505383 0.255576 0.505383
0.629511 0.255576 0.505383
0.753283 0.255576 0.505383
0.876764 0.255576 0.505383
1.000000 0.255576 0.505383
0.000000 0.380797 0.505383
0.129334 0.380797 0.505383
0.255576 0.380797 0.505383
0.380797 0.380797 0.505383
0.505383 0.380797 0.505383
0.629511 0.380797 0.505383
0.753283 0.380797 0.505383
0.876764 0.380797 0.505383
1.000000 0.380797 0.505383
0.000000 0.505383 0.505383
0.129334 0.505383 0.505383
0.255576 0.505383 0.505383
0.380797 0.505383 0.505383
0.505383 0.505383 0.505383
0.629511 0.505383 0.505383
0.753283 0.505383 0.505383
0.876764 0.505383 0.505383
1.000000 0.505383 0.505383
0.000000 0.629511 0.505383
0.129334 0.629511 0.505383
0.255576 0.629511 0.505383
0.380797 0.629511 0.505383
0.505383 0.629511 0.505383
0.629511 0.629511 0.505383
0.753283 0.629511 0.505383
0.876764 0.629511 0.505383
1.000000 0.629511 0.505383
0.000000 0.753283 0.505383
0.129334 0.753283 0.505383
0.255576 0.753283 0.505383
0.380797 0.753283 0.505383
0.505383 0.753283 0.505383
0.629511 0.753283 0.505383
0.753283 0.753283 0.505383
0.876764 0.753283 0.505383
1.000000 0.753283 0.505383
0.000000 0.876764 0.505383
0.129334 0.876764 0.505383
0.255576 0.876764 0.505383
0.380797 0.876764 0.505383
0.505383 0.876764 0.505383
0.629511 0.876764 0.505383
0.753283 0.876764 0.505383
0.876764 0.876764 0.505383
1.000000 0.876764 0.505383
0.000000 1.000000 0.505383
0.129334 1.000000 0.505383
0.255576 1.000000 0.505383
0.380797 1.000000 0.505383
0.505383 1.000000 0.505383
0.629511 1.000000 0.505383
0.753283 1.000000 0.505383
0.876764 1.000000 0.505383
1.000000 1.000000 0.505383
0.000000 0.000000 0.629511
0.129334 0.000000 0.629511
0.255576 0.000000 0.629511
0.380797 0.000000 0.629511
0.505383 0.000000 0.629511
0.629511 0.000000 0.629511
0.753283 0.000000 0.629511
0.876764 0.000000 0.629511
1.000000 0.000000 0.629511
0.000000 0.129334 0.629511
0.129334 0.129334 0.629511
0.255576 0.129334 0.629511
0.380797 0.129334 0.629511
0.505383 0.129334 0.629511
0.629511 0.129334 0.629511
0.753283 0.129334 0.629511
0.876764 0.129334 0.629511
1.000000 0.129334 0.629511
0.000000 0.255576 0.629511
0.129334 0.255576 0.629511
0.255576 0.255576 0.629511
0.380797 0.255576 0.629511
0.505383 0.255576 0.629511
0.629511 0.255576 0.629511
0.753283 0.255576 0.629511
0.876764 0.255576 0.629511
1.000000 0.255576 0.629511
0.000000 0.380797 0.629511
0.129334 0.380797 0.629511
0.255576 0.380797 0.629511
0.380797 0.380797 0.629511
0.505383 0.380797 0.629511
0.629511 0.380797 0.629511
0.753283 0.380797 0.629511
0.876764 0.380797 0.629511
1.000000 0.380797 0.629511
0.000000 0.505383 0.629511
0.129334 0.505383 0.629511
0.255576 0.505383 0.629511
0.380797 0.505383 0.629511
0.505383 0.505383 0.629511
0.629511 0.505383 0.629511
0.753283 0.505383 0.629511
0.876764 0.505383 0.629511
1.000000 0.505383 0.629511
0.000000 0.629511 0.629511
0.129334 0.629511 0.629511
0.255576 0.629511 0.629511
0.380797 0.629511 0.629511
0.505383 0.629511 0.629511
0.629511 0.629511 0.629511
0.753283 0.629511 0.629511
0.876764 0.629511 0.629511
1.000000 0.629511 0.629511
0.000000 0.753283 0.629511
0.129334 0.753283 0.629511
0.255576 0.753283 0.629511
0.380797 0.753283 0.629511
0.505383 0.753283 0.629511
0.629511 0.753283 0.629511
0.753283 0.753283 0.629511
0.876764 0.753283 0.629511
1.000000 0.753283 0.629511
0.000000 0.876764 0.629511
0.129334 0.876764 0.629511
0.255576 0.876764 0.629511
0.380797 0.876764 0.629511
0.505383 0.876764 0.629511
0.629511 0.876764 0.629511
0.753283 0.876764 0.629511
0.876764 0.876764 0.629511
1.000000 0.876764 0.629511
0.000000 1.000000 0.629511
0.129334 1.000000 0.629511
0.255576 1.000000 0.629511
0.380797 1.000000 0.629511
0.505383 1.000000 0.629511
0.629511 1.000000 0.629511
0.753283 1.000000 0.629511
0.876764 1.000000 0.629511
1.000000 1.000000 0.629511
0.000000 0.000000 0.753283
0.129334 0.000000 0.753283
0.255576 0.000000 0.753283
0.380797 0.000000 0.753283
0.505383 0.000000 0.753283
0.629511 0.000000 0.753283
0.753283 0.000000 0.753283
0.876764 0.000000 0.753283
1.000000 0.000000 0.753283
0.000000 0.129334 0.753283
0.129334 0.129334 0.753283
0.255576 0.129334 0.753283
0.380797 0.129334 0.753283
0.505383 0.129334 0.753283
0.629511 0.129334 0.753283
0.753283 0.129334 0.753283
0.876764 0.129334 0.753283
1.000000 0.129334 0.753283
0.000000 0.255576 0.753283
0.129334 0.255576 0.753283
0.255576 0.255576 0.753283
0.380797 0.255576 0.753283
0.505383 0.255576 0.753283
0.629511 0.255576 0.753283
0.753283 0.255576 0.753283
0.876764 0.255576 0.753283
1.000000 0.255576 0.753283
0.000000 0.380797 0.753283
0.129334 0.380797 0.753283
0.255576 0.380797 0.753283
0.380797 0.380797 0.753283
0.505383 0.380797 0.753283
0.629511 0.380797 0.753283
0.753283 0.380797 0.753283
0.876764 0.380797 0.753283
1.000000 0.380797 0.753283
0.000000 0.505383 0.753283
0.129334 0.505383 0.753283
0.255576 0.505383 0.753283
0.380797 0.505383 0.753283
0.505383 0.505383 0.753283
0.629511 0.505383 0.753283
0.753283 0.505383 0.753283
0.876764 0.505383 0.753283
1.000000 0.505383 0.753283
0.000000 0.629511 0.753283
0.129334 0.629511 0.753283
0.255576 0.629511 0.753283
0.380797 0.629511 0.753283
0.505383 0.629511 0.753283
0.629511 0.629511 0.753283
0.753283 0.629511 0.753283
0.876764 0.629511 0.753283
1.000000 0.629511 0.753283
0.000000 0.753283 0.753283
0.129334 0.753283 0.753283
0.255576 0.753283 0.753283
0.380797 0.753283 0.753283
0.505383 0.753283 0.753283
0.629511 0.753283 0.753283
0.753283 0.753283 0.753283
0.876764 0.753283 0.753283
1.000000 0.753283 0.753283
0.000000 0.876764 0.753283
0.129334 0.876764 0.753283
0.255576 0.876764 0.753283
0.380797 0.876764 0.753283
0.505383 0.876764 0.753283
0.629511 0.876764 0.753283
0.753283 0.876764 0.753283
0.876764 0.876764 0.753283
1.000000 0.876764 0.753283
0.000000 1.000000 0.753283
0.129334 1.000000 0.753283
0.255576 1.000000 0.753283
0.380797 1.000000 0.753283
0.505383 1.000000 0.753283
0.629511 1.000000 0.753283
0.753283 1.000000 0.753283
0.876764 1.000000 0.753283
1.000000 1.000000 0.753283
0.000000 0.000000 0.876764
0.129334 0.000000 0.876764
0.255576 0.000000 0.876764
0.380797 0.000000 0.876764
0.505383 0.000000 0.876764
0.629511 0.000000 0.876764
0.753283 0.000000 0.876764
0.876764 0.000000 0.876764
1.000000 0.000000 0.876764
0.000000 0.129334 0.876764
0.129334 0.129334 0.876764
0.255576 0.129334 0.876764
0.380797 0.129334 0.876764
0.505383 0.129334 0.876764
0.629511 0.129334 0.876764
0.753283 0.129334 0.876764
0.876764 0.129334 0.876764
1.000000 0.129334 0.876764
0.000000 0.255576 0.876764
0.129334 0.255576 0.876764
0.255576 0.255576 0.876764
0.380797 0.255576 0.876764
0.505383 0.255576 0.876764
0.629511 0.255576 0.876764
0.753283 0.255576 0.876764
0.876764 0.255576 0.876764
1.000000 0.255576 0.876764
0.000000 0.380797 0.876764
0.129334 0.380797 0.876764
0.255576 0.380797 0.876764
0.380797 0.380797 0.876764
0.505383 0.380797 0.876764
0.629511 0.380797 0.876764
0.753283 0.380797 0.876764
0.876764 0.380797 0.876764
1.000000 0.380797 0.876764
0.000000 0.505383 0.876764
0.129334 0.505383 0.876764
0.255576 0.505383 0.876764
0.380797 0.505383 0.876764
0.505383 0.505383 0.876764
0.629511 0.505383 0.876764
0.753283 0.505383 0.876764
0.876764 0.505383 0.876764
1.000000 0.505383 0.876764
0.000000 0.629511 0.876764
0.129334 0.629511 0.876764
0.255576 0.629511 0.876764
0.380797 0.629511 0.876764
0.505383 0.629511 0.876764
0.629511 0.629511 0.876764
0.753283 0.629511 0.876764
0.876764 0.629511 0.876764
1.000000 0.629511 0.876764
0.000000 0.753283 0.876764
0.129334 0.753283 0.876764
0.255576 0.753283 0.876764
0.380797 0.753283 0.876764
0.505383 0.753283 0.876764
0.629511 0.753283 0.876764
0.753283 0.753283 0.876764
0.876764 0.753283 0.876764
1.000000 0.753283 0.876764
0.000000 0.876764 0.876764
0.129334 0.876764 0.876764
0.255576 0.876764 0.876764
0.380797 0.876764 0.876764
0.505383 0.876764 0.876764
0.629511 0.876764 0.876764
0.753283 0.876764 0.876764
0.876764 0.876764 0.876764
1.000000 0.876764 0.876764
0.000000 1.000000 0.876764
0.129334 1.000000 0.876764
0.255576 1.000000 0.876764
0.380797 1.000000 0.876764
0.505383 1.000000 0.876764
0.629511 1.000000 0.876764
0.753283 1.000000 0.876764
0.876764 1.000000 0.876764
1.000000 1.000000 0.876764
0.000000 0.000000 1.000000
0.129334 0.000000 1.000000
0.255576 0.000000 1.000000
0.380797 0.000000 1.000000
0.505383 0.000000 1.000000
0.629511 0.000000 1.000000
0.753283 0.000000 1.000000
0.876764 0.000000 1.000000
1.000000 0.000000 1.000000
0.000000 0.129334 1.000000
0.129334 0.129334 1.000000
0.255576 0.129334 1.000000
0.380797 0.129334 1.000000
0.505383 0.129334 1.000000
0.629511 0.129334 1.000000
0.753283 0.129334 1.000000
0.876764 0.129334 1.000000
1.000000 0.129334 1.000000
0.000000 0.255576 1.000000
0.129334 0.255576 1.000000
0.255576 0.255576 1.000000
0.380797 0.255576 1.000000
0.505383 0.255576 1.000000
0.629511 0.255576 1.000000
0.753283 0.255576 1.000000
0.876764 0.255576 1.000000
1.000000 0.255576 1.000000
0.000000 0.380797 1.000000
0.129334 0.380797 1.000000
0.255576 0.380797 1.000000
0.380797 0.380797 1.000000
0.505383 0.380797 1.000000
0.629511 0.380797 1.000000
0.753283 0.380797 1.000000
0.876764 0.380797 1.000000
1.000000 0.380797 1.000000
0.000000 0.505383 1.000000
0.129334 0.505383 1.000000
0.255576 0.505383 1.000000
0.380797 0.505383 1.000000
0.505383 0.505383 1.000000
0.629511 0.505383 1.000000
0.753283 0.505383 1.000000
0.876764 0.505383 1.000000
1.000000 0.505383 1.000000
0.000000 0.629511 1.000000
0.129334 0.629511 1.000000
0.255576 0.629511 1.000000
0.380797 0.629511 1.000000
0.505383 0.629511 1.000000
0.629511 0.629511 1.000000
0.753283 0.629511 1.000000
0.876764 0.629511 1.000000
1.000000 0.629511 1.000000
0.000000 0.753283 1.000000
0.129334 0.753283 1.000000
0.255576 0.753283 1.000000
0.380797 0.753283 1.000000
0.505383 0.753283 1.000000
0.629511 0.753283 1.000000
0.753283 0.753283 1.000000
0.876764 0.753283 1.000000
1.000000 0.753283 1.000000
0.000000 0.876764 1.000000
0.129334 0.876764 1.000000
0.255576 0.876764 1.000000
0.380797 0.876764 1.000000
0.505383 0.876764 1.000000
0.629511 0.876764 1.000000
0.753283 0.876764 1.000000
0.876764 0.876764 1.000000
1.000000 0.876764 1.000000
0.000000 1.000000 1.000000
0.129334 1.000000 1.000000
0.255576 1.000000 1.000000
0.380797 1.000000 1.000000
0.505383 1.000000 1.000000
0.629511 1.000000 1.000000
0.753283 1.000000 1.000000
0.876764 1.000000 1.000000
1.000000 1.000000 1.000000
