configs/lut/rec709_neutral_monitor.cube
TITLE "Rec709 Neutral Monitor"
LUT_3D_SIZE 17
DOMAIN_MIN 0.0 0.0 0.0
DOMAIN_MAX 1.0 1.0 1.0
0.000000 0.000000 0.000000
0.065495 0.000000 0.000000
0.129334 0.000000 0.000000
0.192625 0.000000 0.000000
0.255576 0.000000 0.000000
0.318282 0.000000 0.000000
0.380797 0.000000 0.000000
0.443156 0.000000 0.000000
0.505383 0.000000 0.000000
0.567497 0.000000 0.000000
0.629511 0.000000 0.000000
0.691437 0.000000 0.000000
0.753283 0.000000 0.000000
0.815057 0.000000 0.000000
0.876764 0.000000 0.000000
0.938411 0.000000 0.000000
1.000000 0.000000 0.000000
0.000000 0.065495 0.000000
0.065495 0.065495 0.000000
0.129334 0.065495 0.000000
0.192625 0.065495 0.000000
0.255576 0.065495 0.000000
0.318282 0.065495 0.000000
0.380797 0.065495 0.000000
0.443156 0.065495 0.000000
0.505383 0.065495 0.000000
0.567497 0.065495 0.000000
0.629511 0.065495 0.000000
0.691437 0.065495 0.000000
0.753283 0.065495 0.000000
0.815057 0.065495 0.000000
0.876764 0.065495 0.000000
0.938411 0.065495 0.000000
1.000000 0.065495 0.000000
0.000000 0.129334 0.000000
0.065495 0.129334 0.000000
0.129334 0.129334 0.000000
0.192625 0.129334 0.000000
0.255576 0.129334 0.000000
0.318282 0.129334 0.000000
0.380797 0.129334 0.000000
0.443156 0.129334 0.000000
0.505383 0.129334 0.000000
0.567497 0.129334 0.000000
0.629511 0.129334 0.000000
0.691437 0.129334 0.000000
0.753283 0.129334 0.000000
0.815057 0.129334 0.000000
0.876764 0.129334 0.000000
0.938411 0.129334 0.000000
1.000000 0.129334 0.000000
0.000000 0.192625 0.000000
0.065495 0.192625 0.000000
0.129334 0.192625 0.000000
0.192625 0.192625 0.000000
0.255576 0.192625 0.000000
0.318282 0.192625 0.000000
0.380797 0.192625 0.000000
0.443156 0.192625 0.000000
0.505383 0.192625 0.000000
0.567497 0.192625 0.000000
0.629511 0.192625 0.000000
0.691437 0.192625 0.000000
0.753283 0.192625 0.000000
0.815057 0.192625 0.000000
0.876764 0.192625 0.000000
0.938411 0.192625 0.000000
1.000000 0.192625 0.000000
0.000000 0.255576 0.000000
0.065495 0.255576 0.000000
0.129334 0.255576 0.000000
0.192625 0.255576 0.000000
0.255576 0.255576 0.000000
0.318282 0.255576 0.000000
0.380797 0.255576 0.000000
0.443156 0.255576 0.000000
0.505383 0.255576 0.000000
0.567497 0.255576 0.000000
0.629511 0.255576 0.000000
0.691437 0.255576 0.000000
0.753283 0.255576 0.000000
0.815057 0.255576 0.000000
0.876764 0.255576 0.000000
0.938411 0.255576 0.000000
1.000000 0.255576 0.000000
0.000000 0.318282 0.000000
0.065495 0.318282 0.000000
0.129334 0.318282 0.000000
0.192625 0.318282 0.000000
0.255576 0.318282 0.000000
0.318282 0.318282 0.000000
0.380797 0.318282 0.000000
0.443156 0.318282 0.000000
0.505383 0.318282 0.000000
0.567497 0.318282 0.000000
0.629511 0.318282 0.000000
0.691437 0.318282 0.000000
0.753283 0.318282 0.000000
0.815057 0.318282 0.000000
0.876764 0.318282 0.000000
0.938411 0.318282 0.000000
1.000000 0.318282 0.000000
0.000000 0.380797 0.000000
0.065495 0.380797 0.000000
0.129334 0.380797 0.000000
0.192625 0.380797 0.000000
0.255576 0.380797 0.000000
0.318282 0.380797 0.000000
0.380797 0.380797 0.000000
0.443156 0.380797 0.000000
0.505383 0.380797 0.000000
0.567497 0.380797 0.000000
0.629511 0.380797 0.000000
0.691437 0.380797 0.000000
0.753283 0.380797 0.000000
0.815057 0.380797 0.000000
0.876764 0.380797 0.000000
0.938411 0.380797 0.000000
1.000000 0.380797 0.000000
0.000000 0.443156 0.000000
0.065495 0.443156 0.000000
0.129334 0.443156 0.000000
0.192625 0.443156 0.000000
0.255576 0.443156 0.000000
0.318282 0.443156 0.000000
0.380797 0.443156 0.000000
0.443156 0.443156 0.000000
0.505383 0.443156 0.000000
0.567497 0.443156 0.000000
0.629511 0.443156 0.000000
0.691437 0.443156 0.000000
0.753283 0.443156 0.000000
0.815057 0.443156 0.000000
0.876764 0.443156 0.000000
0.938411 0.443156 0.000000
1.000000 0.443156 0.000000
0.000000 0.505383 0.000000
0.065495 0.505383 0.000000
0.129334 0.505383 0.000000
0.192625 0.505383 0.000000
0.255576 0.505383 0.000000
0.318282 0.505383 0.000000
0.380797 0.505383 0.000000
0.443156 0.505383 0.000000
0.505383 0.505383 0.000000
0.567497 0.505383 0.000000
0.629511 0.505383 0.000000
0.691437 0.505383 0.000000
0.753283 0.505383 0.000000
0.815057 0.505383 0.000000
0.876764 0.505383 0.000000
0.938411 0.505383 0.000000
1.000000 0.505383 0.000000
0.000000 0.567497 0.000000
0.065495 0.567497 0.000000
0.129334 0.567497 0.000000
0.192625 0.567497 0.000000
0.255576 0.567497 0.000000
0.318282 0.567497 0.000000
0.380797 0.567497 0.000000
0.443156 0.567497 0.000000
0.505383 0.567497 0.000000
0.567497 0.567497 0.000000
0.629511 0.567497 0.000000
0.691437 0.567497 0.000000
0.753283 0.567497 0.000000
0.815057 0.567497 0.000000
0.876764 0.567497 0.000000
0.938411 0.567497 0.000000
1.000000 0.567497 0.000000
0.000000 0.629511 0.000000
0.065495 0.629511 0.000000
0.129334 0.629511 0.000000
0.192625 0.629511 0.000000
0.255576 0.629511 0.000000
0.318282 0.629511 0.000000
0.380797 0.629511 0.000000
0.443156 0.629511 0.000000
0.505383 0.629511 0.000000
0.567497 0.629511 0.000000
0.629511 0.629511 0.000000
0.691437 0.629511 0.000000
0.753283 0.629511 0.000000
0.815057 0.629511 0.000000
0.876764 0.629511 0.000000
0.938411 0.629511 0.000000
1.000000 0.629511 0.000000
0.000000 0.691437 0.000000
0.065495 0.691437 0.000000
0.129334 0.691437 0.000000
0.192625 0.691437 0.000000
0.255576 0.691437 0.000000
0.318282 0.691437 0.000000
0.380797 0.691437 0.000000
0.443156 0.691437 0.000000
0.505383 0.691437 0.000000
0.567497 0.691437 0.000000
0.629511 0.691437 0.000000
0.691437 0.691437 0.000000
0.753283 0.691437 0.000000
0.815057 0.691437 0.000000
0.876764 0.691437 0.000000
0.938411 0.691437 0.000000
1.000000 0.691437 0.000000
0.000000 0.753283 0.000000
0.065495 0.753283 0.000000
0.129334 0.753283 0.000000
0.192625 0.753283 0.000000
0.255576 0.753283 0.000000
0.318282 0.753283 0.000000
0.380797 0.753283 0.000000
0.443156 0.753283 0.000000
0.505383 0.753283 0.000000
0.567497 0.753283 0.000000
0.629511 0.753283 0.000000
0.691437 0.753283 0.000000
0.753283 0.753283 0.000000
0.815057 0.753283 0.000000
0.876764 0.753283 0.000000
0.938411 0.753283 0.000000
1.000000 0.753283 0.000000
0.000000 0.815057 0.000000
0.065495 0.815057 0.000000
0.129334 0.815057 0.000000
0.192625 0.815057 0.000000
0.255576 0.815057 0.000000
0.318282 0.815057 0.000000
0.380797 0.815057 0.000000
0.443156 0.815057 0.000000
0.505383 0.815057 0.000000
0.567497 0.815057 0.000000
0.629511 0.815057 0.000000
0.691437 0.815057 0.000000
0.753283 0.815057 0.000000
0.815057 0.815057 0.000000
0.876764 0.815057 0.000000
0.938411 0.815057 0.000000
1.000000 0.815057 0.000000
0.000000 0.876764 0.000000
0.065495 0.876764 0.000000
0.129334 0.876764 0.000000
0.192625 0.876764 0.000000
0.255576 0.876764 0.000000
0.318282 0.876764 0.000000
0.380797 0.876764 0.000000
0.443156 0.876764 0.000000
0.505383 0.876764 0.000000
0.567497 0.876764 0.000000
0.629511 0.876764 0.000000
0.691437 0.876764 0.000000
0.753283 0.876764 0.000000
0.815057 0.876764 0.000000
0.876764 0.876764 0.000000
0.938411 0.876764 0.000000
1.000000 0.876764 0.000000
0.000000 0.938411 0.000000
0.065495 0.938411 0.000000
0.129334 0.938411 0.000000
0.192625 0.938411 0.000000
0.255576 0.938411 0.000000
0.318282 0.938411 0.000000
0.380797 0.938411 0.000000
0.443156 0.938411 0.000000
0.505383 0.938411 0.000000
0.567497 0.938411 0.000000
0.629511 0.938411 0.000000
0.691437 0.938411 0.000000
0.753283 0.938411 0.000000
0.815057 0.938411 0.000000
0.876764 0.938411 0.000000
0.938411 0.938411 0.000000
1.000000 0.938411 0.000000
0.000000 1.000000 0.000000
0.065495 1.000000 0.000000
0.129334 1.000000 0.000000
0.192625 1.000000 0.000000
0.255576 1.000000 0.000000
0.318282 1.000000 0.000000
0.380797 1.000000 0.000000
0.443156 1.000000 0.000000
0.505383 1.000000 0.000000
0.567497 1.000000 0.000000
0.629511 1.000000 0.000000
0.691437 1.000000 0.000000
0.753283 1.000000 0.000000
0.815057 1.000000 0.000000
0.876764 1.000000 0.000000
0.938411 1.000000 0.000000
1.000000 1.000000 0.000000
0.000000 0.000000 0.065495
0.065495 0.000000 0.065495
0.129334 0.000000 0.065495
0.192625 0.000000 0.065495
0.255576 0.000000 0.065495
0.318282 0.000000 0.065495
0.380797 0.000000 0.065495
0.443156 0.000000 0.065495
0.505383 0.000000 0.065495
0.567497 0.000000 0.065495
0.629511 0.000000 0.065495
0.691437 0.000000 0.065495
0.753283 0.000000 0.065495
0.815057 0.000000 0.065495
0.876764 0.000000 0.065495
0.938411 0.000000 0.065495
1.000000 0.000000 0.065495
0.000000 0.065495 0.065495
0.065495 0.065495 0.065495
0.129334 0.065495 0.065495
0.192625 0.065495 0.065495
0.255576 0.065495 0.065495
0.318282 0.065495 0.065495
0.380797 0.065495 0.065495
0.443156 0.065495 0.065495
0.505383 0.065495 0.065495
0.567497 0.065495 0.065495
0.629511 0.065495 0.065495
0.691437 0.065495 0.065495
0.753283 0.065495 0.065495
0.815057 0.065495 0.065495
0.876764 0.065495 0.065495
0.938411 0.065495 0.065495
1.000000 0.065495 0.065495
0.000000 0.129334 0.065495
0.065495 0.129334 0.065495
0.129334 0.129334 0.065495
0.192625 0.129334 0.065495
0.255576 0.129334 0.065495
0.318282 0.129334 0.065495
0.380797 0.129334 0.065495
0.443156 0.129334 0.065495
0.505383 0.129334 0.065495
0.567497 0.129334 0.065495
0.629511 0.129334 0.065495
0.691437 0.129334 0.065495
0.753283 0.129334 0.065495
0.815057 0.129334 0.065495
0.876764 0.129334 0.065495
0.938411 0.129334 0.065495
1.000000 0.129334 0.065495
0.000000 0.192625 0.065495
0.065495 0.192625 0.065495
0.129334 0.192625 0.065495
0.192625 0.192625 0.065495
0.255576 0.192625 0.065495
0.318282 0.192625 0.065495
0.380797 0.192625 0.065495
0.443156 0.192625 0.065495
0.505383 0.192625 0.065495
0.567497 0.192625 0.065495
0.629511 0.192625 0.065495
0.691437 0.192625 0.065495
0.753283 0.192625 0.065495
0.815057 0.192625 0.065495
0.876764 0.192625 0.065495
0.938411 0.192625 0.065495
1.000000 0.192625 0.065495
0.000000 0.255576 0.065495
0.065495 0.255576 0.065495
0.129334 0.255576 0.065495
0.192625 0.255576 0.065495
0.255576 0.255576 0.065495
0.318282 0.255576 0.065495
0.380797 0.255576 0.065495
0.443156 0.255576 0.065495
0.505383 0.255576 0.065495
0.567497 0.255576 0.065495
0.629511 0.255576 0.065495
0.691437 0.255576 0.065495
0.753283 0.255576 0.065495
0.815057 0.255576 0.065495
0.876764 0.255576 0.065495
0.938411 0.255576 0.065495
1.000000 0.255576 0.065495
0.000000 0.318282 0.065495
0.065495 0.318282 0.065495
0.129334 0.318282 0.065495
0.192625 0.318282 0.065495
0.255576 0.318282 0.065495
0.318282 0.318282 0.065495
0.380797 0.318282 0.065495
0.443156 0.318282 0.065495
0.505383 0.318282 0.065495
0.567497 0.318282 0.065495
0.629511 0.318282 0.065495
0.691437 0.318282 0.065495
0.753283 0.318282 0.065495
0.815057 0.318282 0.065495
0.876764 0.318282 0.065495
0.938411 0.318282 0.065495
1.000000 0.318282 0.065495
0.000000 0.380797 0.065495
0.065495 0.380797 0.065495
0.129334 0.380797 0.065495
0.192625 0.380797 0.065495
0.255576 0.380797 0.065495
0.318282 0.380797 0.065495
0.380797 0.380797 0.065495
0.443156 0.380797 0.065495
0.505383 0.380797 0.065495
0.567497 0.380797 0.065495
0.629511 0.380797 0.065495
0.691437 0.380797 0.065495
0.753283 0.380797 0.065495
0.815057 0.380797 0.065495
0.876764 0.380797 0.065495
0.938411 0.380797 0.065495
1.000000 0.380797 0.065495
0.000000 0.443156 0.065495
0.065495 0.443156 0.065495
0.129334 0.443156 0.065495
0.192625 0.443156 0.065495
0.255576 0.443156 0.065495
0.318282 0.443156 0.065495
0.380797 0.443156 0.065495
0.443156 0.443156 0.065495
0.505383 0.443156 0.065495
0.567497 0.443156 0.065495
0.629511 0.443156 0.065495
0.691437 0.443156 0.065495
0.753283 0.443156 0.065495
0.815057 0.443156 0.065495
0.876764 0.443156 0.065495
0.938411 0.443156 0.065495
1.000000 0.443156 0.065495
0.000000 0.505383 0.065495
0.065495 0.505383 0.065495
0.129334 0.505383 0.065495
0.192625 0.505383 0.065495
0.255576 0.505383 0.065495
0.318282 0.505383 0.065495
0.380797 0.505383 0.065495
0.443156 0.505383 0.065495
0.505383 0.505383 0.065495
0.567497 0.505383 0.065495
0.629511 0.505383 0.065495
0.691437 0.505383 0.065495
0.753283 0.505383 0.065495
0.815057 0.505383 0.065495
0.876764 0.505383 0.065495
0.938411 0.505383 0.065495
1.000000 0.505383 0.065495
0.000000 0.567497 0.065495
0.065495 0.567497 0.065495
0.129334 0.567497 0.065495
0.192625 0.567497 0.065495
0.255576 0.567497 0.065495
0.318282 0.567497 0.065495
0.380797 0.567497 0.065495
0.443156 0.567497 0.065495
0.505383 0.567497 0.065495
0.567497 0.567497 0.065495
0.629511 0.567497 0.065495
0.691437 0.567497 0.065495
0.753283 0.567497 0.065495
0.815057 0.567497 0.065495
0.876764 0.567497 0.065495
0.938411 0.567497 0.065495
1.000000 0.567497 0.065495
0.000000 0.629511 0.065495
0.065495 0.629511 0.065495
0.129334 0.629511 0.065495
0.192625 0.629511 0.065495
0.255576 0.629511 0.065495
0.318282 0.629511 0.065495
0.380797 0.629511 0.065495
0.443156 0.629511 0.065495
0.505383 0.629511 0.065495
0.567497 0.629511 0.065495
0.629511 0.629511 0.065495
0.691437 0.629511 0.065495
0.753283 0.629511 0.065495
0.815057 0.629511 0.065495
0.876764 0.629511 0.065495
0.938411 0.629511 0.065495
1.000000 0.629511 0.065495
0.000000 0.691437 0.065495
0.065495 0.691437 0.065495
0.129334 0.691437 0.065495
0.192625 0.691437 0.065495
0.255576 0.691437 0.065495
0.318282 0.691437 0.065495
0.380797 0.691437 0.065495
0.443156 0.691437 0.065495
0.505383 0.691437 0.065495
0.567497 0.691437 0.065495
0.629511 0.691437 0.065495
0.691437 0.691437 0.065495
0.753283 0.691437 0.065495
0.815057 0.691437 0.065495
0.876764 0.691437 0.065495
0.938411 0.691437 0.065495
1.000000 0.691437 0.065495
0.000000 0.753283 0.065495
0.065495 0.753283 0.065495
0.129334 0.753283 0.065495
0.192625 0.753283 0.065495
0.255576 0.753283 0.065495
0.318282 0.753283 0.065495
0.380797 0.753283 0.065495
0.443156 0.753283 0.065495
0.505383 0.753283 0.065495
0.567497 0.753283 0.065495
0.629511 0.753283 0.065495
0.691437 0.753283 0.065495
0.753283 0.753283 0.065495
0.815057 0.753283 0.065495
0.876764 0.753283 0.065495
0.938411 0.753283 0.065495
1.000000 0.753283 0.065495
0.000000 0.815057 0.065495
0.065495 0.815057 0.065495
0.129334 0.815057 0.065495
0.192625 0.815057 0.065495
0.255576 0.815057 0.065495
0.318282 0.815057 0.065495
0.380797 0.815057 0.065495
0.443156 0.815057 0.065495
0.505383 0.815057 0.065495
0.567497 0.815057 0.065495
0.629511 0.815057 0.065495
0.691437 0.815057 0.065495
0.753283 0.815057 0.065495
0.815057 0.815057 0.065495
0.876764 0.815057 0.065495
0.938411 0.815057 0.065495
1.000000 0.815057 0.065495
0.000000 0.876764 0.065495
0.065495 0.876764 0.065495
0.129334 0.876764 0.065495
0.192625 0.876764 0.065495
0.255576 0.876764 0.065495
0.318282 0.876764 0.065495
0.380797 0.876764 0.065495
0.443156 0.876764 0.065495
0.505383 0.876764 0.065495
0.567497 0.876764 0.065495
0.629511 0.876764 0.065495
0.691437 0.876764 0.065495
0.753283 0.876764 0.065495
0.815057 0.876764 0.065495
0.876764 0.876764 0.065495
0.938411 0.876764 0.065495
1.000000 0.876764 0.065495
0.000000 0.938411 0.065495
0.065495 0.938411 0.065495
0.129334 0.938411 0.065495
0.192625 0.938411 0.065495
0.255576 0.938411 0.065495
0.318282 0.938411 0.065495
0.380797 0.938411 0.065495
0.443156 0.938411 0.065495
0.505383 0.938411 0.065495
0.567497 0.938411 0.065495
0.629511 0.938411 0.065495
0.691437 0.938411 0.065495
0.753283 0.938411 0.065495
0.815057 0.938411 0.065495
0.876764 0.938411 0.065495
0.938411 0.938411 0.065495
1.000000 0.938411 0.065495
0.000000 1.000000 0.065495
0.065495 1.000000 0.065495
0.129334 1.000000 0.065495
0.192625 1.000000 0.065495
0.255576 1.000000 0.065495
0.318282 1.000000 0.065495
0.380797 1.000000 0.065495
0.443156 1.000000 0.065495
0.505383 1.000000 0.065495
0.567497 1.000000 0.065495
0.629511 1.000000 0.065495
0.691437 1.000000 0.065495
0.753283 1.000000 0.065495
0.815057 1.000000 0.065495
0.876764 1.000000 0.065495
0.938411 1.000000 0.065495
1.000000 1.000000 0.065495
0.000000 0.000000 0.129334
0.065495 0.000000 0.129334
0.129334 0.000000 0.129334
0.192625 0.000000 0.129334
0.255576 0.000000 0.129334
0.318282 0.000000 0.129334
0.380797 0.000000 0.129334
0.443156 0.000000 0.129334
0.505383 0.000000 0.129334
0.567497 0.000000 0.129334
0.629511 0.000000 0.129334
0.691437 0.000000 0.129334
0.753283 0.000000 0.129334
0.815057 0.000000 0.129334
0.876764 0.000000 0.129334
0.938411 0.000000 0.129334
1.000000 0.000000 0.129334
0.000000 0.065495 0.129334
0.065495 0.065495 0.129334
0.129334 0.065495 0.129334
0.192625 0.065495 0.129334
0.255576 0.065495 0.129334
0.318282 0.065495 0.129334
0.380797 0.065495 0.129334
0.443156 0.065495 0.129334
0.505383 0.065495 0.129334
0.567497 0.065495 0.129334
0.629511 0.065495 0.129334
0.691437 0.065495 0.129334
0.753283 0.065495 0.129334
0.815057 0.065495 0.129334
0.876764 0.065495 0.129334
0.938411 0.065495 0.129334
1.000000 0.065495 0.129334
0.000000 0.129334 0.129334
0.065495 0.129334 0.129334
0.129334 0.129334 0.129334
0.192625 0.129334 0.129334
0.255576 0.129334 0.129334
0.318282 0.129334 0.129334
0.380797 0.129334 0.129334
0.443156 0.129334 0.129334
0.505383 0.129334 0.129334
0.567497 0.129334 0.129334
0.629511 0.129334 0.129334
0.691437 0.129334 0.129334
0.753283 0.129334 0.129334
0.815057 0.129334 0.129334
0.876764 0.129334 0.129334
0.938411 0.129334 0.129334
1.000000 0.129334 0.129334
0.000000 0.192625 0.129334
0.065495 0.192625 0.129334
0.129334 0.192625 0.129334
0.192625 0.192625 0.129334
0.255576 0.192625 0.129334
0.318282 0.192625 0.129334
0.380797 0.192625 0.129334
0.443156 0.192625 0.129334
0.505383 0.192625 0.129334
0.567497 0.192625 0.129334
0.629511 0.192625 0.129334
0.691437 0.192625 0.129334
0.753283 0.192625 0.129334
0.815057 0.192625 0.129334
0.876764 0.192625 0.129334
0.938411 0.192625 0.129334
1.000000 0.192625 0.129334
0.000000 0.255576 0.129334
0.065495 0.255576 0.129334
0.129334 0.255576 0.129334
0.192625 0.255576 0.129334
0.255576 0.255576 0.129334
0.318282 0.255576 0.129334
0.380797 0.255576 0.129334
0.443156 0.255576 0.129334
0.505383 0.255576 0.129334
0.567497 0.255576 0.129334
0.629511 0.255576 0.129334
0.691437 0.255576 0.129334
0.753283 0.255576 0.129334
0.815057 0.255576 0.129334
0.876764 0.255576 0.129334
0.938411 0.255576 0.129334
1.000000 0.255576 0.129334
0.000000 0.318282 0.129334
0.065495 0.318282 0.129334
0.129334 0.318282 0.129334
0.192625 0.318282 0.129334
0.255576 0.318282 0.129334
0.318282 0.318282 0.129334
0.380797 0.318282 0.129334
0.443156 0.318282 0.129334
0.505383 0.318282 0.129334
0.567497 0.318282 0.129334
0.629511 0.318282 0.129334
0.691437 0.318282 0.129334
0.753283 0.318282 0.129334
0.815057 0.318282 0.129334
0.876764 0.318282 0.129334
0.938411 0.318282 0.129334
1.000000 0.318282 0.129334
0.000000 0.380797 0.129334
0.065495 0.380797 0.129334
0.129334 0.380797 0.129334
0.192625 0.380797 0.129334
0.255576 0.380797 0.129334
0.318282 0.380797 0.129334
0.380797 0.380797 0.129334
0.443156 0.380797 0.129334
0.505383 0.380797 0.129334
0.567497 0.380797 0.129334
0.629511 0.380797 0.129334
0.691437 0.380797 0.129334
0.753283 0.380797 0.129334
0.815057 0.380797 0.129334
0.876764 0.380797 0.129334
0.938411 0.380797 0.129334
1.000000 0.380797 0.129334
0.000000 0.443156 0.129334
0.065495 0.443156 0.129334
0.129334 0.443156 0.129334
0.192625 0.443156 0.129334
0.255576 0.443156 0.129334
0.318282 0.443156 0.129334
0.380797 0.443156 0.129334
0.443156 0.443156 0.129334
0.505383 0.443156 0.129334
0.567497 0.443156 0.129334
0.629511 0.443156 0.129334
0.691437 0.443156 0.129334
0.753283 0.443156 0.129334
0.815057 0.443156 0.129334
0.876764 0.443156 0.129334
0.938411 0.443156 0.129334
1.000000 0.443156 0.129334
0.000000 0.505383 0.129334
0.065495 0.505383 0.129334
0.129334 0.505383 0.129334
0.192625 0.505383 0.129334
0.255576 0.505383 0.129334
0.318282 0.505383 0.129334
0.380797 0.505383 0.129334
0.443156 0.505383 0.129334
0.505383 0.505383 0.129334
0.567497 0.505383 0.129334
0.629511 0.505383 0.129334
0.691437 0.505383 0.129334
0.753283 0.505383 0.129334
0.815057 0.505383 0.129334
0.876764 0.505383 0.129334
0.938411 0.505383 0.129334
1.000000 0.505383 0.129334
0.000000 0.567497 0.129334
0.065495 0.567497 0.129334
0.129334 0.567497 0.129334
0.192625 0.567497 0.129334
0.255576 0.567497 0.129334
0.318282 0.567497 0.129334
0.380797 0.567497 0.129334
0.443156 0.567497 0.129334
0.505383 0.567497 0.129334
0.567497 0.567497 0.129334
0.629511 0.567497 0.129334
0.691437 0.567497 0.129334
0.753283 0.567497 0.129334
0.815057 0.567497 0.129334
0.876764 0.567497 0.129334
0.938411 0.567497 0.129334
1.000000 0.567497 0.129334
0.000000 0.629511 0.129334
0.065495 0.629511 0.129334
0.129334 0.629511 0.129334
0.192625 0.629511 0.129334
0.255576 0.629511 0.129334
0.318282 0.629511 0.129334
0.380797 0.629511 0.129334
0.443156 0.629511 0.129334
0.505383 0.629511 0.129334
0.567497 0.629511 0.129334
0.629511 0.629511 0.129334
0.691437 0.629511 0.129334
0.753283 0.629511 0.129334
0.815057 0.629511 0.129334
0.876764 0.629511 0.129334
0.938411 0.629511 0.129334
1.000000 0.629511 0.129334
0.000000 0.691437 0.129334
0.065495 0.691437 0.129334
0.129334 0.691437 0.129334
0.192625 0.691437 0.129334
0.255576 0.691437 0.129334
0.318282 0.691437 0.129334
0.380797 0.691437 0.129334
0.443156 0.691437 0.129334
0.505383 0.691437 0.129334
0.567497 0.691437 0.129334
0.629511 0.691437 0.129334
0.691437 0.691437 0.129334
0.753283 0.691437 0.129334
0.815057 0.691437 0.129334
0.876764 0.691437 0.129334
0.938411 0.691437 0.129334
1.000000 0.691437 0.129334
0.000000 0.753283 0.129334
0.065495 0.753283 0.129334
0.129334 0.753283 0.129334
0.192625 0.753283 0.129334
0.255576 0.753283 0.129334
0.318282 0.753283 0.129334
0.380797 0.753283 0.129334
0.443156 0.753283 0.129334
0.505383 0.753283 0.129334
0.567497 0.753283 0.129334
0.629511 0.753283 0.129334
0.691437 0.753283 0.129334
0.753283 0.753283 0.129334
0.815057 0.753283 0.129334
0.876764 0.753283 0.129334
0.938411 0.753283 0.129334
1.000000 0.753283 0.129334
0.000000 0.815057 0.129334
0.065495 0.815057 0.129334
0.129334 0.815057 0.129334
0.192625 0.815057 0.129334
0.255576 0.815057 0.129334
0.318282 0.815057 0.129334
0.380797 0.815057 0.129334
0.443156 0.815057 0.129334
0.505383 0.815057 0.129334
0.567497 0.815057 0.129334
0.629511 0.815057 0.129334
0.691437 0.815057 0.129334
0.753283 0.815057 0.129334
0.815057 0.815057 0.129334
0.876764 0.815057 0.129334
0.938411 0.815057 0.129334
1.000000 0.815057 0.129334
0.000000 0.876764 0.129334
0.065495 0.876764 0.129334
0.129334 0.876764 0.129334
0.192625 0.876764 0.129334
0.255576 0.876764 0.129334
0.318282 0.876764 0.129334
0.380797 0.876764 0.129334
0.443156 0.876764 0.129334
0.505383 0.876764 0.129334
0.567497 0.876764 0.129334
0.629511 0.876764 0.129334
0.691437 0.876764 0.129334
0.753283 0.876764 0.129334
0.815057 0.876764 0.129334
0.876764 0.876764 0.129334
0.938411 0.876764 0.129334
1.000000 0.876764 0.129334
0.000000 0.938411 0.129334
0.065495 0.938411 0.129334
0.129334 0.938411 0.129334
0.192625 0.938411 0.129334
0.255576 0.938411 0.129334
0.318282 0.938411 0.129334
0.380797 0.938411 0.129334
0.443156 0.938411 0.129334
0.505383 0.938411 0.129334
0.567497 0.938411 0.129334
0.629511 0.938411 0.129334
0.691437 0.938411 0.129334
0.753283 0.938411 0.129334
0.815057 0.938411 0.129334
0.876764 0.938411 0.129334
0.938411 0.938411 0.129334
1.000000 0.938411 0.129334
0.000000 1.000000 0.129334
0.065495 1.000000 0.129334
0.129334 1.000000 0.129334
0.192625 1.000000 0.129334
0.255576 1.000000 0.129334
0.318282 1.000000 0.129334
0.380797 1.000000 0.129334
0.443156 1.000000 0.129334
0.505383 1.000000 0.129334
0.567497 1.000000 0.129334
0.629511 1.000000 0.129334
0.691437 1.000000 0.129334
0.753283 1.000000 0.129334
0.815057 1.000000 0.129334
0.876764 1.000000 0.129334
0.938411 1.000000 0.129334
1.000000 1.000000 0.129334
0.000000 0.000000 0.192625
0.065495 0.000000 0.192625
0.129334 0.000000 0.192625
0.192625 0.000000 0.192625
0.255576 0.000000 0.192625
0.318282 0.000000 0.192625
0.380797 0.000000 0.192625
0.443156 0.000000 0.192625
0.505383 0.000000 0.192625
0.567497 0.000000 0.192625
0.629511 0.000000 0.192625
0.691437 0.000000 0.192625
0.753283 0.000000 0.192625
0.815057 0.000000 0.192625
0.876764 0.000000 0.192625
0.938411 0.000000 0.192625
1.000000 0.000000 0.192625
0.000000 0.065495 0.192625
