configs/lut/rec709_neutral_monitor.cube
TITLE "Rec709 Neutral Monitor"
LUT_3D_SIZE 5
DOMAIN_MIN 0.0 0.0 0.0
DOMAIN_MAX 1.0 1.0 1.0
0.000000 0.000000 0.000000
0.255576 0.000000 0.000000
0.505383 0.000000 0.000000
0.753283 0.000000 0.000000
1.000000 0.000000 0.000000
0.000000 0.255576 0.000000
0.255576 0.255576 0.000000
0.505383 0.255576 0.000000
0.753283 0.255576 0.000000
1.000000 0.255576 0.000000
0.000000 0.505383 0.000000
0.255576 0.505383 0.000000
0.505383 0.505383 0.000000
0.753283 0.505383 0.000000
1.000000 0.505383 0.000000
0.000000 0.753283 0.000000
0.255576 0.753283 0.000000
0.505383 0.753283 0.000000
0.753283 0.753283 0.000000
1.000000 0.753283 0.000000
0.000000 1.000000 0.000000
0.255576 1.000000 0.000000
0.505383 1.000000 0.000000
0.753283 1.000000 0.000000
1.000000 1.000000 0.000000
0.000000 0.000000 0.255576
0.255576 0.000000 0.255576
0.505383 0.000000 0.255576
0.753283 0.000000 0.255576
1.000000 0.000000 0.255576
0.000000 0.255576 0.255576
0.255576 0.255576 0.255576
0.505383 0.255576 0.255576
0.753283 0.255576 0.255576
1.000000 0.255576 0.255576
0.000000 0.505383 0.255576
0.255576 0.505383 0.255576
0.505383 0.505383 0.255576
0.753283 0.505383 0.255576
1.000000 0.505383 0.255576
0.000000 0.753283 0.255576
0.255576 0.753283 0.255576
0.505383 0.753283 0.255576
0.753283 0.753283 0.255576
1.000000 0.753283 0.255576
0.000000 1.000000 0.255576
0.255576 1.000000 0.255576
0.505383 1.000000 0.255576
0.753283 1.000000 0.255576
1.000000 1.000000 0.255576
0.000000 0.000000 0.505383
0.255576 0.000000 0.505383
0.505383 0.000000 0.505383
0.753283 0.000000 0.505383
1.000000 0.000000 0.505383
0.000000 0.255576 0.505383
0.255576 0.255576 0.505383
0.505383 0.255576 0.505383
0.753283 0.255576 0.505383
1.000000 0.255576 0.505383
0.000000 0.505383 0.505383
0.255576 0.505383 0.505383
0.505383 0.505383 0.505383
0.753283 0.505383 0.505383
1.000000 0.505383 0.505383
0.000000 0.753283 0.505383
0.255576 0.753283 0.505383
0.505383 0.753283 0.505383
0.753283 0.753283 0.505383
1.000000 0.753283 0.505383
0.000000 1.000000 0.505383
0.255576 1.000000 0.505383
0.505383 1.000000 0.505383
0.753283 1.000000 0.505383
1.000000 1.000000 0.505383
0.000000 0.000000 0.753283
0.255576 0.000000 0.753283
0.505383 0.000000 0.753283
0.753283 0.000000 0.753283
1.000000 0.000000 0.753283
0.000000 0.255576 0.753283
0.255576 0.255576 0.753283
0.505383 0.255576 0.753283
0.753283 0.255576 0.753283
1.000000 0.255576 0.753283
0.000000 0.505383 0.753283
0.255576 0.505383 0.753283
0.505383 0.505383 0.753283
0.753283 0.505383 0.753283
1.000000 0.505383 0.753283
0.000000 0.753283 0.753283
0.255576 0.753283 0.753283
0.505383 0.753283 0.753283
0.753283 0.753283 0.753283
1.000000 0.753283 0.753283
0.000000 1.000000 0.753283
0.255576 1.000000 0.753283
0.505383 1.000000 0.753283
0.753283 1.000000 0.753283
1.000000 1.000000 0.753283
0.000000 0.000000 1.000000
0.255576 0.000000 1.000000
0.505383 0.000000 1.000000
0.753283 0.000000 1.000000
1.000000 0.000000 1.000000
0.000000 0.255576 1.000000
0.255576 0.255576 1.000000
0.505383 0.255576 1.000000
0.753283 0.255576 1.000000
1.000000 0.255576 1.000000
0.000000 0.505383 1.000000
0.255576 0.505383 1.000000
0.505383 0.505383 1.000000
0.753283 0.505383 1.000000
1.000000 0.505383 1.000000
0.000000 0.753283 1.000000
0.255576 0.753283 1.000000
0.505383 0.753283 1.000000
0.753283 0.753283 1.000000
1.000000 0.753283 1.000000
0.000000 1.000000 1.000000
0.255576 1.000000 1.000000
0.505383 1.000000 1.000000
0.753283 1.000000 1.000000
1.000000 1.000000 1.000000
